X:1
T:Title
L:1/8
M:4/4
K:C
V:1 treble nm="Grand Piano"
V:1
 z4 z2 z[Q:1/4=100] A/B/ | cA/B/ cA/B/ c A2 A | G/G/G AB A3 G/A/ | BG/A/ BG/A/ B G2 G | %4
 FF/F/ A^G E3 E | DEFA ^G E2 E/E/ | DEFA ^G/A/ B2 c | BA Bc/c/ B>A GB | AG/G/ AB A>G FF | %9
 EE ^GA/A/ B/c/B/A/ BE | Ec/c/ B^G A4 |] %11

